packages/kaspersky-hexa-ui-icons/src/iconsSVGs/16/ServiceK8S.svg

<svg width="16" height="16" viewBox="0 0 16 16" fill="none" xmlns="http://www.w3.org/2000/svg">
<path fill-rule="evenodd" clip-rule="evenodd" d="M5.3501 3.5001C5.3501 2.58883 6.08883 1.8501 7.0001 1.8501H9.0001C9.91137 1.8501 10.6501 2.58883 10.6501 3.5001V3.8501H11.5001C12.9637 3.8501 14.1501 5.03654 14.1501 6.5001V9.8501H14.4001C15.0905 9.8501 15.6501 10.4097 15.6501 11.1001V12.9001C15.6501 13.5905 15.0905 14.1501 14.4001 14.1501H12.6001C11.9097 14.1501 11.3501 13.5905 11.3501 12.9001V11.1001C11.3501 10.4097 11.9097 9.8501 12.6001 9.8501H12.8501V6.5001C12.8501 5.75451 12.2457 5.1501 11.5001 5.1501H10.6501V5.5001C10.6501 6.41137 9.91137 7.1501 9.0001 7.1501H8.6501V9.8501H8.9001C9.59045 9.8501 10.1501 10.4097 10.1501 11.1001V12.9001C10.1501 13.5905 9.59045 14.1501 8.9001 14.1501H7.1001C6.40974 14.1501 5.8501 13.5905 5.8501 12.9001V11.1001C5.8501 10.4097 6.40974 9.8501 7.1001 9.8501H7.3501V7.1501H7.0001C6.08883 7.1501 5.3501 6.41137 5.3501 5.5001V5.1501H4.5001C3.75451 5.1501 3.1501 5.75451 3.1501 6.5001V9.8501H3.4001C4.09045 9.8501 4.6501 10.4097 4.6501 11.1001V12.9001C4.6501 13.5905 4.09045 14.1501 3.4001 14.1501H1.6001C0.909742 14.1501 0.350098 13.5905 0.350098 12.9001V11.1001C0.350098 10.4097 0.909742 9.8501 1.6001 9.8501H1.8501V6.5001C1.8501 5.03654 3.03654 3.8501 4.5001 3.8501H5.3501V3.5001ZM7.0001 3.1501C6.8068 3.1501 6.6501 3.3068 6.6501 3.5001V5.5001C6.6501 5.6934 6.8068 5.8501 7.0001 5.8501H9.0001C9.1934 5.8501 9.3501 5.6934 9.3501 5.5001V3.5001C9.3501 3.3068 9.1934 3.1501 9.0001 3.1501H7.0001ZM7.1501 11.1501V12.8501H8.8501V11.1501H7.1501ZM1.6501 12.8501V11.1501H3.3501V12.8501H1.6501ZM12.6501 11.1501V12.8501H14.3501V11.1501H12.6501Z" fill="black"/>
</svg>

<svg xmlns="http://www.w3.org/2000/svg" width="16" height="16" fill="none" viewBox="0 0 16 16"><path fill="#000" fill-rule="evenodd" d="M5.35 3.5c0-.9113.7387-1.65 1.65-1.65h2c.9113 0 1.65.7387 1.65 1.65v.35h.85c1.4635 0 2.65 1.1864 2.65 2.65v3.35h.25c.6903 0 1.25.5596 1.25 1.25v1.8c0 .6903-.5597 1.25-1.25 1.25h-1.8c-.6904 0-1.25-.5597-1.25-1.25v-1.8c0-.6904.5596-1.25 1.25-1.25h.25V6.5c0-.7456-.6044-1.35-1.35-1.35h-.85v.35c0 .9112-.7387 1.65-1.65 1.65h-.35v2.7h.25c.6903 0 1.25.5596 1.25 1.25v1.8c0 .6903-.5597 1.25-1.25 1.25H7.1c-.6904 0-1.25-.5597-1.25-1.25v-1.8c0-.6904.5596-1.25 1.25-1.25h.25v-2.7H7c-.9113 0-1.65-.7388-1.65-1.65v-.35H4.5c-.7456 0-1.35.6044-1.35 1.35v3.35h.25c.6903 0 1.25.5596 1.25 1.25v1.8c0 .6903-.5597 1.25-1.25 1.25H1.6c-.6904 0-1.25-.5597-1.25-1.25v-1.8c0-.6904.5596-1.25 1.25-1.25h.25V6.5c0-1.4636 1.1864-2.65 2.65-2.65h.85zM7 3.15a.35.35 0 0 0-.35.35v2a.35.35 0 0 0 .35.35h2a.35.35 0 0 0 .35-.35v-2A.35.35 0 0 0 9 3.15zm.15 8v1.7h1.7v-1.7zm-5.5 1.7v-1.7h1.7v1.7zm11-1.7v1.7h1.7v-1.7z"/></svg>
